Simply-Black-Circles/scalable/apps/amarok.svg

<?xml version="1.0" encoding="UTF-8" standalone="no"?><svg xmlns:dc="http://purl.org/dc/elements/1.1/" xmlns:cc="http://creativecommons.org/ns#" xmlns:rdf="http://www.w3.org/1999/02/22-rdf-syntax-ns#" xmlns="http://www.w3.org/2000/svg" width="48" height="48" viewBox="0 0 12.7 12.7"><metadata><rdf:RDF><cc:Work><dc:format>image/svg+xml</dc:format><dc:type rdf:resource="http://purl.org/dc/dcmitype/StillImage"/><dc:title/></cc:Work></rdf:RDF></metadata><path d="M6.34.07a6.29 6.29 0 0 0-6.29 6.3 6.29 6.29 0 0 0 6.3 6.28 6.29 6.29 0 0 0 6.28-6.29A6.29 6.29 0 0 0 6.34.07zm-.01.94a5.4 5.4 0 0 1 5.4 5.4 5.4 5.4 0 0 1-5.4 5.41 5.4 5.4 0 0 1-5.41-5.4A5.4 5.4 0 0 1 6.32 1zm.02.32a5.03 5.03 0 0 0-4.37 7.5c.54-.3.76-.81.64-.83-.07-.3-.6-.76-.74-1.5.22-.07.81-.06.92-.11.13-.07.53-.55.65-.56.12-.01.38-.07.58-.16.2-.1.99-.91 1.16-1.01.17-.1.68-.1.85-.08.16.01.31-.06.42-.2.11-.15 1.29-.99 1.43-1.06.15-.08.55-.55.76-.55.06 0 .17.21.33.42s.13.4.04.56c-.38.34-.59 1-.7 1.54.4-.19.92.06 1.32-.27.09.04.08.4.08.51 0 .12-.08.23-.39.34-.33.12-1.11.62-1.44 1.11-.32.5-.4 2.37-.43 2.6l-.04.67c-.04.28.3.64.45.89a5.03 5.03 0 0 0-1.52-9.81zm-.29 3.76a.7.7 0 0 0-.36.1c-.29.28-.48.56-.7 1 .48-.25 1.62-.5 1.23-1.08a1.24 1.24 0 0 0-.17-.02z" fill="#1a1a1a"/></svg>

<?xml version="1.0" encoding="UTF-8" standalone="no"?>
<svg
   xmlns:dc="http://purl.org/dc/elements/1.1/"
   xmlns:cc="http://creativecommons.org/ns#"
   xmlns:rdf="http://www.w3.org/1999/02/22-rdf-syntax-ns#"
   xmlns:svg="http://www.w3.org/2000/svg"
   xmlns="http://www.w3.org/2000/svg"
   xmlns:sodipodi="http://sodipodi.sourceforge.net/DTD/sodipodi-0.dtd"
   xmlns:inkscape="http://www.inkscape.org/namespaces/inkscape"
   width="48"
   height="48"
   viewBox="0 0 12.7 12.7"
   version="1.1"
   id="svg6"
   sodipodi:docname="amarok.svg"
   inkscape:version="0.92.4 (5da689c313, 2019-01-14)">
  <defs
     id="defs10" />
  <sodipodi:namedview
     pagecolor="#ffffff"
     bordercolor="#666666"
     borderopacity="1"
     objecttolerance="10"
     gridtolerance="10"
     guidetolerance="10"
     inkscape:pageopacity="0"
     inkscape:pageshadow="2"
     inkscape:window-width="1087"
     inkscape:window-height="480"
     id="namedview8"
     showgrid="false"
     inkscape:zoom="4.9166667"
     inkscape:cx="2.1355932"
     inkscape:cy="24"
     inkscape:window-x="0"
     inkscape:window-y="25"
     inkscape:window-maximized="0"
     inkscape:current-layer="svg6" />
  <metadata
     id="metadata2">
    <rdf:RDF>
      <cc:Work>
        <dc:format>image/svg+xml</dc:format>
        <dc:type
           rdf:resource="http://purl.org/dc/dcmitype/StillImage" />
        <dc:title></dc:title>
      </cc:Work>
    </rdf:RDF>
  </metadata>
  <path
     d="M 6.34,0.07 A 6.29,6.29 0 0 0 0.05,6.37 6.29,6.29 0 0 0 6.35,12.65 6.29,6.29 0 0 0 12.63,6.36 6.29,6.29 0 0 0 6.34,0.07 Z M 6.33,1.01 a 5.4,5.4 0 0 1 5.4,5.4 5.4,5.4 0 0 1 -5.4,5.41 A 5.4,5.4 0 0 1 0.92,6.42 5.4,5.4 0 0 1 6.32,1 Z M 6.35,1.33 A 5.03,5.03 0 0 0 1.98,8.83 C 2.52,8.53 2.74,8.02 2.62,8 2.55,7.7 2.02,7.24 1.88,6.5 2.1,6.43 2.69,6.44 2.8,6.39 2.93,6.32 3.33,5.84 3.45,5.83 3.57,5.82 3.83,5.76 4.03,5.67 4.23,5.57 5.02,4.76 5.19,4.66 5.36,4.56 5.87,4.56 6.04,4.58 6.2,4.59 6.35,4.52 6.46,4.38 6.57,4.23 7.75,3.39 7.89,3.32 8.04,3.24 8.44,2.77 8.65,2.77 8.71,2.77 8.82,2.98 8.98,3.19 9.14,3.4 9.11,3.59 9.02,3.75 8.64,4.09 8.43,4.75 8.32,5.29 8.72,5.1 9.24,5.35 9.64,5.02 9.73,5.06 9.72,5.42 9.72,5.53 9.72,5.65 9.64,5.76 9.33,5.87 9,5.99 8.22,6.49 7.89,6.98 7.57,7.48 7.49,9.35 7.46,9.58 l -0.04,0.67 c -0.04,0.28 0.3,0.64 0.45,0.89 A 5.03,5.03 0 0 0 6.35,1.33 Z M 6.06,5.09 A 0.7,0.7 0 0 0 5.7,5.19 C 5.41,5.47 5.22,5.75 5,6.19 5.48,5.94 6.62,5.69 6.23,5.11 A 1.24,1.24 0 0 0 6.06,5.09 Z"
     id="path4"
     inkscape:connector-curvature="0"
     style="fill:#1a1a1a" />
</svg>
